X: 23
T:Love at the Endings
M:C|
L:1/8
C:Ed Reavy
R:Reel
K:D
FE |:DEFA BcdB |AF(3FEF AFEF |DEFA (3BcB AF|
(3GFE (3FED B,EEF |DEFA BcdB |
AF(3FEF ABde |fgfe dfec |1 dBAF D3  E :|2 dBAF D2 de |
|:fgfe defg |afbf afed |fgfe dfbf|
afdf e2 de |fgfe dcdB |AF (3FEF E2 DE |
 FABc dfec |1 dBAF D3 g :|2 dBAF D2 :|
